public/img/logo2.svg

<svg viewBox="0 0 88.91 50" xmlns="http://www.w3.org/2000/svg"><path d="m0 0h36.23v50h-36.23z" fill="#82c502"/><g fill="#000111"><path d="m57.32 18.83a6.09 6.09 0 0 0 -2.22-1.53 8.06 8.06 0 0 0 -3.16-.58 6 6 0 0 0 -3.8 1 3.28 3.28 0 0 0 -1.14 2.66 3 3 0 0 0 .31 1.46 2.82 2.82 0 0 0 1 1 6.63 6.63 0 0 0 1.7.72c.7.21 1.52.41 2.46.61s2 .48 2.84.75a8.44 8.44 0 0 1 2.15 1 4.34 4.34 0 0 1 1.36 1.51 4.67 4.67 0 0 1 .47 2.22 5 5 0 0 1 -.58 2.35 4.81 4.81 0 0 1 -1.47 1.67 6.59 6.59 0 0 1 -2.25 1 12.15 12.15 0 0 1 -2.86.32 11.71 11.71 0 0 1 -7.9-2.86l1-1.58a8 8 0 0 0 1.26 1.06 9.42 9.42 0 0 0 1.64.87 10.46 10.46 0 0 0 1.92.58 10.87 10.87 0 0 0 2.17.21 6.71 6.71 0 0 0 3.67-.85 2.83 2.83 0 0 0 1.32-2.56 2.93 2.93 0 0 0 -.37-1.54 3.18 3.18 0 0 0 -1.13-1.08 7.7 7.7 0 0 0 -1.86-.79c-.74-.23-1.6-.45-2.58-.67s-1.97-.48-2.74-.78a7.1 7.1 0 0 1 -2-1 3.75 3.75 0 0 1 -1.21-1.4 4.53 4.53 0 0 1 -.4-2 5.56 5.56 0 0 1 .51-2.43 4.73 4.73 0 0 1 1.46-1.77 7 7 0 0 1 2.22-1.09 10.37 10.37 0 0 1 2.89-.31 9.55 9.55 0 0 1 3.5.6 9.21 9.21 0 0 1 2.79 1.67z"/><path d="m80.09 34.83v-16.17l-7.18 12.51h-1.14l-7.18-12.51v16.17h-1.94v-19.69h2l7.69 13.48 7.74-13.48h2v19.69z"/><path d="m87 34.83v-19.69h1.94v19.69z"/></g><path d="m26.23 16.74h-7.13v18.26h-2v-18.26h-7.1v-1.74h16.23z" fill="#fff"/></svg>

<svg xmlns="http://www.w3.org/2000/svg" viewBox="0 0 88.91 50"><defs><style>.cls-1{fill:#82c502;}.cls-2{fill:#000111;}.cls-3{fill:#fff;}</style></defs><title>Asset 1</title><g id="Layer_2" data-name="Layer 2"><g id="Layer_1-2" data-name="Layer 1"><rect class="cls-1" width="36.23" height="50"/><path class="cls-2" d="M57.32,18.83A6.09,6.09,0,0,0,55.1,17.3a8.06,8.06,0,0,0-3.16-.58,6,6,0,0,0-3.8,1A3.28,3.28,0,0,0,47,20.38a3,3,0,0,0,.31,1.46,2.82,2.82,0,0,0,1,1,6.63,6.63,0,0,0,1.7.72c.7.21,1.52.41,2.46.61s2,.48,2.84.75a8.44,8.44,0,0,1,2.15,1,4.34,4.34,0,0,1,1.36,1.51,4.67,4.67,0,0,1,.47,2.22A5,5,0,0,1,58.71,32a4.81,4.81,0,0,1-1.47,1.67,6.59,6.59,0,0,1-2.25,1,12.15,12.15,0,0,1-2.86.32,11.71,11.71,0,0,1-7.9-2.86l1-1.58a8,8,0,0,0,1.26,1.06,9.42,9.42,0,0,0,1.64.87,10.46,10.46,0,0,0,1.92.58,10.87,10.87,0,0,0,2.17.21,6.71,6.71,0,0,0,3.67-.85,2.83,2.83,0,0,0,1.32-2.56,2.93,2.93,0,0,0-.37-1.54,3.18,3.18,0,0,0-1.13-1.08,7.7,7.7,0,0,0-1.86-.79c-.74-.23-1.6-.45-2.58-.67S49.3,25.3,48.53,25a7.1,7.1,0,0,1-2-1,3.75,3.75,0,0,1-1.21-1.4,4.53,4.53,0,0,1-.4-2,5.56,5.56,0,0,1,.51-2.43,4.73,4.73,0,0,1,1.46-1.77,7,7,0,0,1,2.22-1.09A10.37,10.37,0,0,1,52,15a9.55,9.55,0,0,1,3.5.6,9.21,9.21,0,0,1,2.79,1.67Z"/><path class="cls-2" d="M80.09,34.83V18.66L72.91,31.17H71.77L64.59,18.66V34.83H62.65V15.14h2l7.69,13.48,7.74-13.48h2V34.83Z"/><path class="cls-2" d="M87,34.83V15.14h1.94V34.83Z"/><path class="cls-3" d="M26.23,16.74H19.1V35h-2V16.74H10V15H26.23Z"/></g></g></svg>
